;FLAVOR:Marlin
;TIME:6127
;Filament used: 4.75496m
;Layer height: 0.2
;MINX:66.384
;MINY:63.548
;MINZ:0.2
;MAXX:168.617
;MAXY:154.783
;MAXZ:8.2
;TARGET_MACHINE.NAME:Creality Ender-3
;Generated with Cura_SteamEngine 5.7.1
M140 S65
M105
M190 S65
M104 S230
M105
M109 S230
M82 ;absolute extrusion mode
; Ender 3 V2 with CR Touch and Sprite Pro
G28                  ; Home all axes
G29                  ; Auto bed leveling
G92 E0               ; Reset extruder
G1 Z2.0 F3000        ; Lift nozzle slightly
G1 X0.1 Y20 Z0.3 F5000.0 ; Move to start position
G1 X0.1 Y200.0 Z0.3 F1500.0 E15 ; Draw prime line
G1 X0.4 Y200.0 Z0.3 F5000.0 ; Move slightly
G1 X0.4 Y20 Z0.3 F1500.0 E30 ; Second prime line
G92 E0               ; Reset extruder again
G1 Z2.0 F3000        ; Move nozzle up for travel
G92 E0
G92 E0
G1 F2400 E-0.8
;LAYER_COUNT:40
;LAYER:0
M107
M204 S2000
M205 X15 Y15
G1 F300 Z0.4
G0 F6000 X69.797 Y67.251 Z0.4
M204 S500
;TYPE:SKIRT
G1 F300 Z0.2
G1 F2400 E0
G1 F900 X70.554 Y66.533 E0.03644
G1 X71.263 Y65.972 E0.06801
G1 X71.53 Y65.777 E0.07956
G1 X72.313 Y65.259 E0.11234
G1 X73.204 Y64.779 E0.14769
G1 X74.121 Y64.387 E0.18252
G1 X74.463 Y64.26 E0.19526
G1 X75.391 Y63.962 E0.2293
G1 X76.341 Y63.748 E0.2633
G1 X77.3 Y63.619 E0.2971
G1 X78.065 Y63.576 E0.32386
G1 X79.372 Y63.552 E0.36951
G1 X155.8 Y63.548 E3.03861
G1 X156.704 Y63.561 E3.07019
G1 X158.122 Y63.672 E3.11986
G1 X159.22 Y63.874 E3.15885
G1 X160.09 Y64.114 E3.19037
G1 X161.119 Y64.5 E3.22875
G1 X161.553 Y64.689 E3.24528
G1 X162.428 Y65.119 E3.27933
G1 X163.269 Y65.63 E3.3137
G1 X164.297 Y66.404 E3.35863
G1 X165.134 Y67.178 E3.39845
G1 X165.804 Y67.922 E3.43341
G1 X166.232 Y68.478 E3.45792
G1 X166.467 Y68.807 E3.47204
G1 X166.998 Y69.624 E3.50607
G1 X167.453 Y70.485 E3.54008
G1 X167.832 Y71.385 E3.57418
G1 X168.151 Y72.386 E3.61087
G1 X168.25 Y72.765 E3.62455
G1 X168.454 Y73.717 E3.65855
G1 X168.573 Y74.675 E3.69226
G1 X168.606 Y75.388 E3.71719
G1 X168.617 Y76.245 E3.74712
G1 X168.612 Y142.223 E6.05128
G1 X168.6 Y142.955 E6.07685
G1 X168.541 Y143.926 E6.11082
G1 X168.409 Y144.819 E6.14235
G1 X168.199 Y145.713 E6.17442
G1 X168.079 Y146.141 E6.18994
G1 X167.775 Y147.068 E6.22401
G1 X167.419 Y147.898 E6.25555
G1 X166.924 Y148.818 E6.29204
G1 X166.392 Y149.623 E6.32573
G1 X165.8 Y150.384 E6.35941
G1 X165.143 Y151.135 E6.39425
G1 X164.44 Y151.808 E6.42824
G1 X163.737 Y152.374 E6.45976
G1 X162.79 Y152.999 E6.49939
G1 X162.489 Y153.177 E6.5116
G1 X161.627 Y153.633 E6.54565
G1 X160.722 Y154.012 E6.57992
G1 X159.626 Y154.352 E6.61999
G1 X159.272 Y154.441 E6.63274
G1 X158.387 Y154.624 E6.6643
G1 X157.363 Y154.743 E6.7003
G1 X156.777 Y154.768 E6.72079
G1 X156.12 Y154.778 E6.74374
G1 X79.155 Y154.783 E9.43159
G1 X78.271 Y154.77 E9.46247
G1 X77.29 Y154.709 E9.4968
G1 X76.161 Y154.529 E9.53672
G1 X75.753 Y154.441 E9.5513
G1 X74.812 Y154.194 E9.58527
G1 X73.927 Y153.875 E9.61813
G1 X72.963 Y153.425 E9.65528
G1 X72.707 Y153.291 E9.66537
G1 X71.927 Y152.836 E9.69691
G1 X71.106 Y152.254 E9.73205
G1 X70.513 Y151.757 E9.75907
G1 X70.291 Y151.555 E9.76956
G1 X69.597 Y150.871 E9.80359
G1 X68.967 Y150.125 E9.83769
G1 X68.364 Y149.266 E9.87434
G1 X68.17 Y148.957 E9.88708
G1 X67.69 Y148.111 E9.92105
G1 X67.313 Y147.29 E9.9526
G1 X67.032 Y146.524 E9.98109
G1 X66.924 Y146.189 E9.99339
G1 X66.675 Y145.285 E10.02613
G1 X66.492 Y144.285 E10.06164
G1 X66.401 Y143.215 E10.09914
G1 X66.384 Y142.508 E10.12384
G1 X66.385 Y76.125 E12.44214
G1 X66.4 Y75.282 E12.47158
G1 X66.462 Y74.31 E12.5056
G1 X66.609 Y73.347 E12.53962
G1 X66.841 Y72.401 E12.57364
G1 X67.147 Y71.5 E12.60687
G1 X67.32 Y71.059 E12.62341
G1 X67.717 Y70.169 E12.65744
G1 X68.154 Y69.379 E12.68897
G1 X68.997 Y68.178 E12.74022
G1 X69.199 Y67.927 E12.75147
G1 X69.797 Y67.251 E12.78299
M204 S2000
G0 F6000 X70.097 Y67.516
M204 S500
G1 F900 X70.803 Y66.846 E12.81698
G1 X71.498 Y66.295 E12.84795
G1 X71.751 Y66.111 E12.85888
G1 X72.534 Y65.593 E12.89167
G1 X73.361 Y65.147 E12.92448
G1 X74.26 Y64.762 E12.95863
G1 X74.586 Y64.641 E12.97078
G1 X75.48 Y64.352 E13.00359
G1 X76.395 Y64.144 E13.03636
G1 X77.322 Y64.018 E13.06903
G1 X78.072 Y63.976 E13.09526
G1 X79.372 Y63.952 E13.14067
G1 X155.795 Y63.948 E15.8096
G1 X156.673 Y63.96 E15.84027
G1 X158.05 Y64.066 E15.8885
G1 X159.114 Y64.26 E15.92627
G1 X159.984 Y64.5 E15.95779
G1 X160.96 Y64.867 E15.9942
G1 X161.377 Y65.048 E16.01008
G1 X162.221 Y65.461 E16.04289
G1 X163.028 Y65.95 E16.07585
G1 X164.056 Y66.724 E16.12079
G1 X164.862 Y67.471 E16.15916
G1 X165.487 Y68.166 E16.19181
G1 X165.907 Y68.711 E16.21584
G1 X166.132 Y69.025 E16.22933
G1 X166.645 Y69.812 E16.26213
G1 X167.085 Y70.641 E16.29491
G1 X167.451 Y71.506 E16.32771
G1 X167.764 Y72.488 E16.36371
G1 X167.859 Y72.849 E16.37674
G1 X168.057 Y73.767 E16.40954
G1 X168.173 Y74.694 E16.44217
G1 X168.206 Y75.393 E16.4666
G1 X168.217 Y76.245 E16.49636
G1 X168.212 Y142.217 E18.80031
G1 X168.201 Y142.931 E18.82525
G1 X168.145 Y143.868 E18.85803
G1 X168.013 Y144.761 E18.88956
G1 X167.814 Y145.605 E18.91984
G1 X167.699 Y146.017 E18.93478
G1 X167.407 Y146.91 E18.96759
G1 X167.051 Y147.74 E18.99913
G1 X166.59 Y148.598 E19.03314
G1 X166.076 Y149.377 E19.06574
G1 X165.484 Y150.138 E19.09941
G1 X164.866 Y150.846 E19.13223
G1 X164.189 Y151.496 E19.16501
G1 X163.486 Y152.062 E19.19652
G1 X162.587 Y152.655 E19.23414
G1 X162.301 Y152.824 E19.24574
G1 X161.472 Y153.264 E19.27851
G1 X160.603 Y153.63 E19.31144
G1 X159.528 Y153.964 E19.35076
G1 X159.191 Y154.049 E19.36289
G1 X158.306 Y154.232 E19.39445
G1 X157.346 Y154.343 E19.4282
G1 X156.771 Y154.368 E19.4483
G1 X156.12 Y154.378 E19.47104
G1 X79.161 Y154.383 E22.15869
G1 X78.295 Y154.371 E22.18894
G1 X77.353 Y154.314 E22.2219
G1 X76.245 Y154.138 E22.26108
G1 X75.854 Y154.054 E22.27504
G1 X74.947 Y153.817 E22.30778
G1 X74.096 Y153.512 E22.33935
G1 X73.149 Y153.071 E22.37583
G1 X72.909 Y152.945 E22.3853
G1 X72.129 Y152.49 E22.41684
G1 X71.363 Y151.947 E22.44963
G1 X70.781 Y151.46 E22.47613
G1 X70.571 Y151.27 E22.48602
G1 X69.902 Y150.612 E22.51879
G1 X69.294 Y149.895 E22.55162
G1 X68.703 Y149.053 E22.58755
G1 X68.518 Y148.759 E22.59968
G1 X68.054 Y147.944 E22.63243
G1 X67.677 Y147.123 E22.66398
G1 X67.413 Y146.401 E22.69083
G1 X67.31 Y146.083 E22.7025
G1 X67.061 Y145.179 E22.73525
G1 X66.891 Y144.251 E22.76819
G1 X66.8 Y143.181 E22.8057
G1 X66.784 Y142.508 E22.82921
G1 X66.785 Y76.132 E25.14727
G1 X66.799 Y75.307 E25.17608
G1 X66.857 Y74.37 E25.20887
G1 X66.998 Y73.442 E25.24165
G1 X67.22 Y72.53 E25.27443
G1 X67.52 Y71.646 E25.30703
G1 X67.686 Y71.221 E25.32296
G1 X68.067 Y70.363 E25.35575
G1 X68.504 Y69.573 E25.38728
G1 X69.308 Y68.429 E25.43611
G1 X69.499 Y68.192 E25.44674
G1 X70.097 Y67.516 E25.47826
M204 S2000
G0 F6000 X70.397 Y67.781
M204 S500
G1 F900 X71.052 Y67.159 E25.5098
G1 X71.733 Y66.618 E25.54018
G1 X71.972 Y66.444 E25.5505
G1 X72.724 Y65.945 E25.58202
G1 X73.519 Y65.515 E25.61359
G1 X74.4 Y65.137 E25.64707
G1 X74.71 Y65.021 E25.65862
G1 X75.569 Y64.742 E25.69017
G1 X76.45 Y64.54 E25.72173
G1 X77.344 Y64.417 E25.75325
G1 X78.079 Y64.376 E25.77896
G1 X79.372 Y64.352 E25.82412
G1 X155.79 Y64.348 E28.49288
G1 X156.643 Y64.359 E28.52267
G1 X157.979 Y64.46 E28.56946
G1 X159.008 Y64.646 E28.60598
G1 X159.878 Y64.886 E28.63749
G1 X160.801 Y65.234 E28.67194
G1 X161.202 Y65.408 E28.68721
G1 X162.014 Y65.804 E28.71876
G1 X162.787 Y66.27 E28.75028
G1 X163.815 Y67.044 E28.79522
G1 X164.565 Y67.739 E28.83093
G1 X165.17 Y68.41 E28.86248
G1 X165.582 Y68.945 E28.88606
G1 X165.797 Y69.244 E28.89893
G1 X166.292 Y70 E28.93048
G1 X166.717 Y70.797 E28.96203
G1 X167.07 Y71.628 E28.99356
G1 X167.377 Y72.59 E29.02882
G1 X167.468 Y72.934 E29.04125
G1 X167.66 Y73.817 E29.07281
G1 X167.773 Y74.713 E29.10435
G1 X167.806 Y75.398 E29.1283
G1 X167.817 Y76.245 E29.15788
G1 X167.812 Y142.211 E31.46162
G1 X167.802 Y142.908 E31.48596
G1 X167.749 Y143.81 E31.51752
G1 X167.617 Y144.703 E31.54904
G1 X167.429 Y145.498 E31.57757
G1 X167.319 Y145.893 E31.59189
G1 X167.039 Y146.752 E31.62344
G1 X166.683 Y147.582 E31.65498
G1 X166.256 Y148.378 E31.68653
G1 X165.76 Y149.132 E31.71805
G1 X165.182 Y149.876 E31.75095
G1 X164.589 Y150.558 E31.78251
G1 X163.938 Y151.184 E31.81405
G1 X163.235 Y151.75 E31.84557
G1 X162.384 Y152.311 E31.88117
G1 X162.113 Y152.471 E31.89216
G1 X161.316 Y152.896 E31.9237
G1 X160.484 Y153.248 E31.95525
G1 X159.43 Y153.576 E31.9938
G1 X159.11 Y153.657 E32.00533
G1 X158.225 Y153.84 E32.03689
G1 X157.328 Y153.943 E32.06842
G1 X156.765 Y153.968 E32.08811
G1 X156.12 Y153.978 E32.11063
G1 X79.166 Y153.983 E34.79811
G1 X78.318 Y153.972 E34.82773
G1 X77.416 Y153.919 E34.85928
G1 X76.329 Y153.747 E34.89772
G1 X75.955 Y153.667 E34.91107
G1 X75.082 Y153.44 E34.94257
G1 X74.231 Y153.135 E34.97414
G1 X73.335 Y152.717 E35.00867
G1 X73.111 Y152.599 E35.01752
G1 X72.331 Y152.144 E35.04905
G1 X71.595 Y151.621 E35.08058
G1 X71.048 Y151.162 E35.10552
G1 X70.851 Y150.985 E35.11477
G1 X70.207 Y150.353 E35.14628
G1 X69.621 Y149.665 E35.17784
G1 X69.041 Y148.84 E35.21306
G1 X68.865 Y148.561 E35.22458
G1 X68.418 Y147.777 E35.2561
G1 X68.041 Y146.956 E35.28765
G1 X67.793 Y146.277 E35.31289
G1 X67.695 Y145.976 E35.32395
G1 X67.454 Y145.106 E35.35548
G1 X67.29 Y144.217 E35.38705
G1 X67.199 Y143.147 E35.42455
G1 X67.184 Y142.508 E35.44687
G1 X67.185 Y76.138 E37.76472
G1 X67.198 Y75.331 E37.79291
G1 X67.253 Y74.429 E37.82447
G1 X67.387 Y73.536 E37.856
G1 X67.599 Y72.658 E37.88755
G1 X67.893 Y71.791 E37.91952
G1 X68.052 Y71.383 E37.93481
G1 X68.417 Y70.557 E37.96635
G1 X68.854 Y69.767 E37.99788
G1 X69.619 Y68.68 E38.0443
G1 X69.799 Y68.457 E38.0543
G1 X70.397 Y67.781 E38.08582
M204 S2000
G1 F2400 E37.28582
G1 F300 Z0.4
;MESH:RoundTimer-lid.stl
G0 F6000 X99.837 Y89.454 Z0.4
M204 S500
;TYPE:WALL-INNER
G1 F300 Z0.2
G1 F2400 E38.08582
G1 F900 X100.089 Y89.216 E38.09793
G1 X100.141 Y88.963 E38.10695
G1 X100.099 Y88.723 E38.11546
G1 X100.002 Y88.591 E38.12118
G1 X99.734 Y88.424 E38.13221
G1 X99.455 Y88.332 E38.14247
G1 X99.127 Y88.291 E38.15401
G1 X98.857 Y88.277 E38.16345
G1 X98.41 Y88.3 E38.17908
G1 X98.02 Y88.41 E38.19324
G1 X97.754 Y88.559 E38.20388
G1 X97.63 Y88.742 E38.2116
G1 X97.589 Y88.934 E38.21846
G1 X97.651 Y89.23 E38.22902
G1 X97.836 Y89.414 E38.23813
G1 X98.077 Y89.545 E38.24771
G1 X98.492 Y89.629 E38.2625
G1 X98.952 Y89.647 E38.27858
G1 X99.404 Y89.602 E38.29444
G1 X99.837 Y89.454 E38.31042
M204 S2000
G0 F6000 X100.049 Y89.804
M204 S500
M205 X6 Y6
;TYPE:WALL-OUTER
G1 F900 X100.388 Y89.484 E38.3267
G1 X100.474 Y89.329 E38.33289
G1 X100.545 Y88.985 E38.34516
G1 X100.519 Y88.712 E38.35474
G1 X100.457 Y88.535 E38.36129
G1 X100.294 Y88.312 E38.37093
G1 X100.126 Y88.177 E38.37846
G1 X99.89 Y88.054 E38.38775
G1 X99.543 Y87.94 E38.40051
G1 X99.162 Y87.892 E38.41392
G1 X98.857 Y87.877 E38.42458
G1 X98.34 Y87.903 E38.44266
G1 X97.874 Y88.036 E38.45959
G1 X97.497 Y88.226 E38.47433
G1 X97.256 Y88.581 E38.48931
G1 X97.186 Y88.904 E38.50086
G1 X97.199 Y89.112 E38.50813
G1 X97.304 Y89.463 E38.52093
G1 X97.599 Y89.74 E38.53506
G1 X97.833 Y89.868 E38.54438
G1 X98.101 Y89.958 E38.55425
G1 X98.444 Y90.028 E38.56647
G1 X98.965 Y90.047 E38.58468
G1 X99.489 Y89.995 E38.60307
G1 X100.049 Y89.804 E38.62373
M204 S2000
M205 X15 Y15
G0 F6000 X99.614 Y89.088
M204 S500
;TYPE:SKIN
G1 F705.9 X99.313 Y89.193 E38.63793
G1 F699 X98.94 Y89.223 E38.65475
G1 X98.42 Y89.211 E38.67814
G1 F707.3 X98.071 Y89.066 E38.69494
G1 X98.014 Y88.972 E38.69982
G1 X98.081 Y88.823 E38.70708
G1 X98.482 Y88.708 E38.72562
G1 X98.971 Y88.693 E38.74736
G1 X99.364 Y88.739 E38.76495
G1 F705.9 X99.699 Y88.887 E38.78125
G1 X99.693 Y89.014 E38.78691
G1 X99.614 Y89.088 E38.79173
M204 S2000
G1 F2400 E37.99173
G1 F300 Z0.4
G0 F6000 X100.037 Y96.494 Z0.4
M204 S500
;TYPE:WALL-INNER
G1 F300 Z0.2
G1 F2400 E38.79173
G1 F900 X100.145 Y96.154 E38.80419
G1 X100.139 Y95.848 E38.81488
G1 X97.644 Y95.848 E38.90201
G1 X97.592 Y96.11 E38.91134
G1 X97.613 Y96.446 E38.9231
G1 X97.771 Y96.68 E38.93296
G1 X98.143 Y96.85 E38.94724
G1 X98.46 Y96.897 E38.95844
G1 X98.806 Y96.912 E38.97053
G1 X99.169 Y96.893 E38.98322
G1 X99.521 Y96.813 E38.99583
G1 X99.759 Y96.715 E39.00482
G1 X100.037 Y96.494 E39.01722
M204 S2000
G0 F6000 X99.643 Y97.196
M204 S500
M205 X6 Y6
;TYPE:WALL-OUTER
G1 F900 X99.946 Y97.07 E39.02868
G1 X100.292 Y96.795 E39.04412
G1 X100.429 Y96.585 E39.05287
G1 X100.547 Y96.211 E39.06657
G1 X100.535 Y95.726 E39.08351
G1 X100.504 Y95.448 E39.09328
G1 X97.371 Y95.448 E39.2027
G1 X97.269 Y95.681 E39.21158
G1 X97.192 Y96.072 E39.2255
G1 X97.192 Y96.491 E39.24013
G1 X97.343 Y96.812 E39.25252
G1 X97.524 Y97 E39.26163
G1 X97.803 Y97.156 E39.27279
G1 X98.048 Y97.24 E39.28184
G1 X98.423 Y97.296 E39.29508
G1 X98.807 Y97.312 E39.3085
G1 X99.207 Y97.294 E39.32249
G1 X99.643 Y97.196 E39.33809
M204 S2000
M205 X15 Y15
G0 F6000 X99.713 Y96.32
M204 S500
;TYPE:SKIN
G1 F1011.2 X99.534 Y96.463 E39.34521
G1 X99.181 Y96.54 E39.35644
G1 F991.7 X98.812 Y96.566 E39.36817
G1 F980.9 X98.487 Y96.555 E39.37859
G1 F1022.7 X98.148 Y96.513 E39.38909
G1 F1055.7 X97.951 Y96.383 E39.39611
G1 X97.93 Y96.178 E39.40225
G1 F1011.2 X98.808 Y96.194 E39.42954
G1 F991.7 X99.769 Y96.186 E39.46
G1 F1011.2 X99.713 Y96.32 E39.46451
M204 S2000
G1 F2400 E38.66451
G1 F300 Z0.4
G0 F6000 X113.141 Y91.38 Z0.4
M204 S500
;TYPE:WALL-INNER
G1 F300 Z0.2
G1 F2400 E39.46451
G1 F900 X113.153 Y91.222 E39.47005
G1 X113.106 Y90.886 E39.4819
G1 X113.001 Y90.711 E39.48902
G1 X112.776 Y90.531 E39.49909
G1 X112.494 Y90.4 E39.50994
G1 X111.979 Y90.317 E39.52816
G1 X111.434 Y90.334 E39.5472
G1 X110.916 Y90.448 E39.56573
G1 X110.678 Y90.649 E39.57661
G1 X110.606 Y90.808 E39.5827
G1 X110.594 Y91.139 E39.59427
G1 X110.639 Y91.379 E39.6028
G1 X113.141 Y91.38 E39.69017
M204 S2000
G0 F6000 X113.511 Y91.78
M204 S500
M205 X6 Y6
;TYPE:WALL-OUTER
G1 F900 X113.555 Y91.21 E39.71014
G1 X113.493 Y90.758 E39.72607
G1 X113.279 Y90.393 E39.74085
G1 X112.976 Y90.183 E39.75372
G1 X112.612 Y90.014 E39.76774
G1 X112.126 Y89.936 E39.78493
G1 X111.868 Y89.921 E39.79395
G1 X111.592 Y89.928 E39.8036
G1 X111.295 Y89.955 E39.81401
G1 X110.879 Y90.047 E39.82889
G1 X110.655 Y90.144 E39.83742
G1 X110.362 Y90.393 E39.85084
G1 X110.208 Y90.75 E39.86442
G1 X110.193 Y91.169 E39.87906
G1 X110.251 Y91.481 E39.89015
G1 X110.364 Y91.78 E39.90131
G1 X113.511 Y91.78 E40.01121
M204 S2000
M205 X15 Y15
G0 F6000 X112.787 Y91.05
M204 S500
;TYPE:SKIN
G1 F1058.8 X112.347 Y91.05 E40.02427
G1 F1011.2 X111.934 Y91.034 E40.03712
G1 F986.3 X110.935 Y91.04 E40.06896
G1 F1005.6 X110.941 Y90.897 E40.07343
G1 X111.075 Y90.759 E40.07944
G1 X111.402 Y90.686 E40.08991
G1 F986.3 X111.943 Y90.659 E40.10718
G1 F1011.2 X112.397 Y90.716 E40.1214
G1 F1058.8 X112.597 Y90.81 E40.12796
G1 X112.774 Y90.985 E40.13535
G1 X112.787 Y91.05 E40.13731
M204 S2000
G1 F2400 E39.33731
G1 F300 Z0.4
G0 F6000 X101.737 Y120.544 Z0.4
M204 S500
M205 X6 Y6
;TYPE:WALL-OUTER
G1 F300 Z0.2
G1 F2400 E40.13731
G1 F1052.6 X101.615 Y120.507 E40.14112
G1 X101.464 Y120.37 E40.14721
G1 X101.397 Y120.213 E40.15231
G1 F1049.6 X101.425 Y119.913 E40.16133
G1 F1043.5 X101.565 Y119.74 E40.16803
G1 X101.736 Y119.668 E40.17362
G1 F1049.6 X101.737 Y120.544 E40.19985
M204 S2000
M205 X15 Y15
G1 F2400 E39.39985
G1 F300 Z0.4
G0 F6000 X101.937 Y124.183 Z0.4
M204 S500
;TYPE:WALL-INNER
G1 F300 Z0.2
G1 F2400 E40.19985
G1 F801.8 X102.224 Y124.195 E40.21112
G1 F794.7 X102.412 Y124.186 E40.21856
M204 S2000
G0 F6000 X102.983 Y124.358
M204 S500
M205 X6 Y6
;TYPE:WALL-OUTER
G1 F900 X103.108 Y124.131 E40.22761
G1 X103.092 Y123.764 E40.24044
G1 X101.482 Y123.764 E40.29666
G1 X101.408 Y124.014 E40.30577
G1 X101.448 Y124.346 E40.31745
G1 X101.646 Y124.518 E40.32661
G1 X101.842 Y124.594 E40.33395
G1 X102.226 Y124.627 E40.34741
G1 X102.487 Y124.602 E40.35657
G1 X102.729 Y124.536 E40.36533
G1 X102.983 Y124.358 E40.37616
M204 S2000
M205 X15 Y15
G1 F2400 E39.57616
G1 F300 Z0.4
G0 F6000 X102.382 Y128.149 Z0.4
M204 S500
;TYPE:WALL-INNER
G1 F300 Z0.2
G1 F2400 E40.37616
G1 F597 X102.067 Y128.148 E40.39274
M204 S2000
G0 F6000 X102.942 Y128.474
M204 S500
M205 X6 Y6
;TYPE:WALL-OUTER
G1 F900 X103.076 Y128.281 E40.40095
G1 X103.079 Y128.015 E40.41024
G1 X102.984 Y127.855 E40.41674
