;FLAVOR:Marlin
;TIME:12834
;Filament used: 10.9361m
;Layer height: 0.2
;MINX:69.382
;MINY:74.882
;MINZ:0.2
;MAXX:165.617
;MAXY:160.117
;MAXZ:33.2
;TARGET_MACHINE.NAME:Creality Ender-3
;Generated with Cura_SteamEngine 5.7.1
M140 S65
M105
M190 S65
M104 S230
M105
M109 S230
M82 ;absolute extrusion mode
; Ender 3 V2 with CR Touch and Sprite Pro
G28                  ; Home all axes
G29                  ; Auto bed leveling
G92 E0               ; Reset extruder
G1 Z2.0 F3000        ; Lift nozzle slightly
G1 X0.1 Y20 Z0.3 F5000.0 ; Move to start position
G1 X0.1 Y200.0 Z0.3 F1500.0 E15 ; Draw prime line
G1 X0.4 Y200.0 Z0.3 F5000.0 ; Move slightly
G1 X0.4 Y20 Z0.3 F1500.0 E30 ; Second prime line
G92 E0               ; Reset extruder again
G1 Z2.0 F3000        ; Move nozzle up for travel
G92 E0
G92 E0
G1 F2400 E-0.8
;LAYER_COUNT:165
;LAYER:0
M107
M204 S2000
M205 X15 Y15
G1 F300 Z0.4
G0 F6000 X73.18 Y78.237 Z0.4
M204 S500
;TYPE:SKIRT
G1 F300 Z0.2
G1 F2400 E0
G1 F900 X73.903 Y77.583 E0.03405
G1 X74.68 Y76.997 E0.06803
G1 X75.508 Y76.481 E0.10211
G1 X76.384 Y76.036 E0.13642
G1 X76.678 Y75.904 E0.14767
G1 X77.566 Y75.551 E0.18105
G1 X78.538 Y75.263 E0.21645
G1 X79.569 Y75.057 E0.25317
G1 X79.916 Y75.007 E0.26541
G1 X81.26 Y74.897 E0.31251
G1 X82.265 Y74.882 E0.34761
G1 X153.016 Y74.885 E2.81845
G1 X153.748 Y74.897 E2.84402
G1 X154.715 Y74.956 E2.87785
G1 X155.569 Y75.077 E2.90798
G1 X156.522 Y75.277 E2.94198
G1 X157.454 Y75.561 E2.97601
G1 X158.349 Y75.92 E3.00969
G1 X158.693 Y76.078 E3.02291
G1 X159.56 Y76.523 E3.05694
G1 X160.383 Y77.042 E3.09092
G1 X161.131 Y77.611 E3.12374
G1 X161.88 Y78.294 E3.15914
G1 X162.252 Y78.668 E3.17756
G1 X162.907 Y79.39 E3.21161
G1 X163.494 Y80.167 E3.24562
G1 X163.995 Y80.963 E3.27846
G1 X164.489 Y81.939 E3.31667
G1 X164.671 Y82.352 E3.33243
G1 X165.025 Y83.259 E3.36643
G1 X165.279 Y84.125 E3.39795
G1 X165.484 Y85.151 E3.43449
G1 X165.586 Y86.103 E3.46792
G1 X165.605 Y86.594 E3.48508
G1 X165.617 Y87.346 E3.51135
G1 X165.615 Y147.499 E5.61208
G1 X165.603 Y148.242 E5.63803
G1 X165.544 Y149.207 E5.6718
G1 X165.428 Y150.042 E5.70124
G1 X165.23 Y150.995 E5.73523
G1 X164.948 Y151.927 E5.76923
G1 X164.58 Y152.849 E5.8039
G1 X164.422 Y153.193 E5.81712
G1 X163.977 Y154.06 E5.85116
G1 X163.458 Y154.883 E5.88514
G1 X162.889 Y155.631 E5.91796
G1 X162.206 Y156.38 E5.95336
G1 X161.832 Y156.752 E5.97178
G1 X161.11 Y157.407 E6.00583
G1 X160.333 Y157.994 E6.03983
G1 X159.505 Y158.513 E6.07396
G1 X158.58 Y158.98 E6.11015
G1 X158.169 Y159.163 E6.12586
G1 X157.263 Y159.517 E6.15983
G1 X156.362 Y159.783 E6.19264
G1 X155.373 Y159.981 E6.22786
G1 X154.448 Y160.083 E6.26036
G1 X153.908 Y160.105 E6.27924
G1 X153.155 Y160.117 E6.30554
G1 X81.973 Y160.115 E8.79144
G1 X81.227 Y160.102 E8.81749
G1 X80.262 Y160.042 E8.85126
G1 X79.441 Y159.925 E8.88022
G1 X78.436 Y159.712 E8.9161
G1 X77.505 Y159.426 E8.95011
G1 X76.651 Y159.08 E8.98229
G1 X76.307 Y158.922 E8.99551
G1 X75.44 Y158.477 E9.02954
G1 X74.617 Y157.958 E9.06352
G1 X73.869 Y157.389 E9.09635
G1 X73.094 Y156.681 E9.133
G1 X72.737 Y156.32 E9.15073
G1 X72.083 Y155.597 E9.18478
G1 X71.497 Y154.82 E9.21877
G1 X70.983 Y153.994 E9.25274
G1 X70.538 Y153.122 E9.28693
G1 X70.404 Y152.824 E9.29834
G1 X70.051 Y151.935 E9.33175
G1 X69.762 Y150.963 E9.36716
G1 X69.55 Y149.892 E9.40529
G1 X69.502 Y149.552 E9.41728
G1 X69.397 Y148.241 E9.46321
G1 X69.382 Y147.236 E9.49832
G1 X69.385 Y87.426 E11.58707
G1 X69.398 Y86.719 E11.61176
G1 X69.459 Y85.757 E11.64543
G1 X69.57 Y84.964 E11.67339
G1 X69.768 Y84.011 E11.70738
G1 X70.048 Y83.078 E11.7414
G1 X70.407 Y82.18 E11.77518
G1 X70.575 Y81.813 E11.78927
G1 X71.019 Y80.948 E11.82323
G1 X71.538 Y80.124 E11.85724
G1 X72.107 Y79.375 E11.89009
G1 X72.819 Y78.594 E11.927
G1 X73.18 Y78.237 E11.94473
M204 S2000
G0 F6000 X73.449 Y78.533
M204 S500
G1 F900 X74.144 Y77.902 E11.97751
G1 X74.892 Y77.336 E12.01027
G1 X75.689 Y76.838 E12.04309
G1 X76.549 Y76.401 E12.07678
G1 X76.826 Y76.276 E12.08739
G1 X77.714 Y75.923 E12.12076
G1 X78.616 Y75.655 E12.15362
G1 X79.627 Y75.453 E12.18963
G1 X79.949 Y75.406 E12.20099
G1 X81.293 Y75.296 E12.24809
G1 X82.265 Y75.282 E12.28204
G1 X153.01 Y75.285 E14.75267
G1 X153.724 Y75.296 E14.77761
G1 X154.659 Y75.352 E14.81032
G1 X155.488 Y75.469 E14.83956
G1 X156.406 Y75.66 E14.87231
G1 X157.305 Y75.932 E14.90511
G1 X158.183 Y76.284 E14.93814
G1 X158.511 Y76.434 E14.95074
G1 X159.347 Y76.861 E14.98352
G1 X160.141 Y77.361 E15.01629
G1 X160.861 Y77.907 E15.04785
G1 X161.61 Y78.59 E15.08325
G1 X161.956 Y78.937 E15.10036
G1 X162.588 Y79.632 E15.13317
G1 X163.155 Y80.38 E15.16595
G1 X163.656 Y81.176 E15.19879
G1 X164.123 Y82.101 E15.23498
G1 X164.299 Y82.498 E15.25015
G1 X164.641 Y83.372 E15.28292
G1 X164.895 Y84.238 E15.31444
G1 X165.086 Y85.194 E15.34849
G1 X165.186 Y86.119 E15.38098
G1 X165.205 Y86.6 E15.39779
G1 X165.217 Y87.346 E15.42385
G1 X165.215 Y147.493 E17.52437
G1 X165.204 Y148.218 E17.54969
G1 X165.148 Y149.152 E17.58237
G1 X165.036 Y149.961 E17.61089
G1 X164.847 Y150.88 E17.64366
G1 X164.577 Y151.779 E17.67644
G1 X164.216 Y152.683 E17.71043
G1 X164.066 Y153.011 E17.72303
G1 X163.639 Y153.847 E17.75581
G1 X163.139 Y154.641 E17.78858
G1 X162.593 Y155.361 E17.82014
G1 X161.91 Y156.11 E17.85554
G1 X161.563 Y156.456 E17.87265
G1 X160.868 Y157.088 E17.90546
G1 X160.12 Y157.655 E17.93824
G1 X159.324 Y158.156 E17.97108
G1 X158.417 Y158.615 E18.00658
G1 X158.023 Y158.791 E18.02165
G1 X157.15 Y159.133 E18.0544
G1 X156.249 Y159.399 E18.08721
G1 X155.329 Y159.583 E18.11997
G1 X154.431 Y159.683 E18.15153
G1 X153.902 Y159.705 E18.17002
G1 X153.155 Y159.717 E18.19611
G1 X81.98 Y159.715 E20.68176
G1 X81.251 Y159.703 E20.70722
G1 X80.318 Y159.646 E20.73987
G1 X79.497 Y159.529 E20.76883
G1 X78.553 Y159.33 E20.80252
G1 X77.655 Y159.055 E20.83532
G1 X76.817 Y158.716 E20.86689
G1 X76.489 Y158.566 E20.87949
G1 X75.653 Y158.139 E20.91227
G1 X74.859 Y157.639 E20.94504
G1 X74.139 Y157.093 E20.9766
G1 X73.378 Y156.399 E21.01256
G1 X73.033 Y156.051 E21.02968
G1 X72.402 Y155.356 E21.06246
G1 X71.836 Y154.608 E21.09522
G1 X71.339 Y153.812 E21.12799
G1 X70.903 Y152.957 E21.16151
G1 X70.776 Y152.676 E21.17228
G1 X70.423 Y151.787 E21.20568
G1 X70.154 Y150.885 E21.23855
G1 X69.946 Y149.835 E21.27594
G1 X69.901 Y149.52 E21.28705
G1 X69.796 Y148.209 E21.33298
G1 X69.782 Y147.236 E21.36696
G1 X69.785 Y87.433 E23.45547
G1 X69.797 Y86.744 E23.47954
G1 X69.855 Y85.812 E23.51215
G1 X69.962 Y85.045 E23.53919
G1 X70.151 Y84.126 E23.57196
G1 X70.42 Y83.226 E23.60477
G1 X70.771 Y82.346 E23.63785
G1 X70.931 Y81.995 E23.65132
G1 X71.358 Y81.161 E23.68404
G1 X71.857 Y80.366 E23.71682
G1 X72.426 Y79.617 E23.74967
G1 X73.101 Y78.878 E23.78463
G1 X73.449 Y78.533 E23.80174
M204 S2000
G0 F6000 X73.718 Y78.829
M204 S500
G1 F900 X74.386 Y78.221 E23.83329
G1 X75.105 Y77.675 E23.86482
G1 X75.87 Y77.195 E23.89635
G1 X76.714 Y76.766 E23.92942
G1 X76.991 Y76.641 E23.94003
G1 X77.829 Y76.306 E23.97155
G1 X78.694 Y76.047 E24.00308
G1 X79.686 Y75.849 E24.03841
G1 X79.982 Y75.805 E24.04886
G1 X81.326 Y75.695 E24.09595
G1 X82.265 Y75.682 E24.12875
G1 X153.004 Y75.685 E26.59918
G1 X153.701 Y75.695 E26.62352
G1 X154.603 Y75.748 E26.65508
G1 X155.407 Y75.861 E26.68343
G1 X156.291 Y76.043 E26.71495
G1 X157.156 Y76.303 E26.7465
G1 X158.017 Y76.648 E26.77889
G1 X158.329 Y76.79 E26.79086
G1 X159.134 Y77.2 E26.82241
G1 X159.899 Y77.68 E26.85395
G1 X160.619 Y78.226 E26.88551
G1 X161.327 Y78.872 E26.91898
G1 X161.661 Y79.207 E26.9355
G1 X162.27 Y79.874 E26.96704
G1 X162.817 Y80.593 E26.99859
G1 X163.299 Y81.357 E27.03014
G1 X163.758 Y82.264 E27.06564
G1 X163.927 Y82.644 E27.08016
G1 X164.257 Y83.485 E27.11171
G1 X164.511 Y84.351 E27.14323
G1 X164.688 Y85.237 E27.17478
G1 X164.786 Y86.135 E27.20633
G1 X164.805 Y86.606 E27.22279
G1 X164.817 Y87.346 E27.24864
G1 X164.815 Y147.487 E29.34895
G1 X164.805 Y148.195 E29.37368
G1 X164.752 Y149.097 E29.40524
G1 X164.644 Y149.881 E29.43287
G1 X164.464 Y150.766 E29.46441
G1 X164.206 Y151.631 E29.49594
G1 X163.852 Y152.517 E29.52926
G1 X163.71 Y152.829 E29.54123
G1 X163.3 Y153.634 E29.57278
G1 X162.82 Y154.399 E29.60432
G1 X162.274 Y155.119 E29.63587
G1 X161.628 Y155.827 E29.66935
G1 X161.293 Y156.161 E29.68587
G1 X160.626 Y156.77 E29.71741
G1 X159.907 Y157.317 E29.74896
G1 X159.143 Y157.799 E29.78051
G1 X158.254 Y158.25 E29.81532
G1 X157.876 Y158.419 E29.82978
G1 X157.036 Y158.75 E29.86131
G1 X156.17 Y159.007 E29.89286
G1 X155.285 Y159.185 E29.92438
G1 X154.387 Y159.285 E29.95594
G1 X153.896 Y159.305 E29.9731
G1 X153.155 Y159.317 E29.99898
G1 X81.986 Y159.315 E32.48443
G1 X81.275 Y159.304 E32.50926
G1 X80.374 Y159.25 E32.54078
G1 X79.553 Y159.133 E32.56974
G1 X78.669 Y158.947 E32.60129
G1 X77.805 Y158.684 E32.63283
G1 X76.983 Y158.352 E32.66379
G1 X76.671 Y158.21 E32.67576
G1 X75.866 Y157.8 E32.70731
G1 X75.101 Y157.32 E32.73885
G1 X74.381 Y156.774 E32.77041
G1 X73.662 Y156.117 E32.80442
G1 X73.329 Y155.782 E32.82092
G1 X72.721 Y155.114 E32.85247
G1 X72.175 Y154.395 E32.88399
G1 X71.695 Y153.63 E32.91553
G1 X71.268 Y152.792 E32.94838
G1 X71.141 Y152.511 E32.95915
G1 X70.806 Y151.672 E32.9907
G1 X70.546 Y150.807 E33.02224
G1 X70.342 Y149.777 E33.05891
G1 X70.3 Y149.488 E33.06911
G1 X70.195 Y148.177 E33.11504
G1 X70.182 Y147.236 E33.14791
G1 X70.185 Y87.44 E35.23617
G1 X70.196 Y86.768 E35.25964
G1 X70.251 Y85.867 E35.29117
G1 X70.354 Y85.125 E35.31733
G1 X70.534 Y84.24 E35.34887
G1 X70.792 Y83.374 E35.38043
G1 X71.143 Y82.494 E35.41351
G1 X71.287 Y82.177 E35.42567
G1 X71.697 Y81.373 E35.45719
G1 X72.176 Y80.607 E35.48874
G1 X72.721 Y79.887 E35.52028
G1 X73.383 Y79.162 E35.55456
G1 X73.718 Y78.829 E35.57106
M204 S2000
G1 F2400 E34.77106
G1 F300 Z0.4
;MESH:RoundTimer-box.stl
G0 F6000 X81.568 Y147.936 Z0.4
M204 S500
;TYPE:WALL-INNER
G1 F300 Z0.2
G1 F2400 E35.57106
G1 F900 X153.431 Y147.935 E38.08074
G1 X153.43 Y87.06 E40.20669
G1 X81.561 Y87.064 E42.71658
G1 X81.568 Y147.936 E44.84242
M204 S2000
G1 F2400 E44.04242
G1 F300 Z0.4
G0 F6000 X153.519 Y148.336 Z0.4
M204 S500
M205 X6 Y6
;TYPE:WALL-OUTER
G1 F300 Z0.2
G1 F2400 E44.84242
G1 F900 X153.724 Y148.24 E44.85033
G1 X153.832 Y148.017 E44.85898
G1 X153.832 Y86.979 E46.99062
G1 X153.738 Y86.769 E46.99865
G1 X153.638 Y86.694 E47.00302
G1 X153.486 Y86.66 E47.00846
G1 X81.477 Y86.66 E49.52324
G1 X81.274 Y86.756 E49.53108
G1 X81.194 Y86.862 E49.53572
G1 X81.16 Y87.022 E49.54143
G1 X81.164 Y148.016 E51.67153
G1 X81.261 Y148.226 E51.67961
G1 X81.361 Y148.301 E51.68398
G1 X81.522 Y148.336 E51.68973
G1 X153.519 Y148.336 E54.20409
M204 S2000
M205 X15 Y15
G0 F6000 X153.072 Y147.576
M204 S500
;TYPE:SKIN
G1 F900 X81.924 Y147.576 E56.6888
G1 X81.921 Y87.42 E58.78964
G1 X153.072 Y87.42 E61.27446
G1 X153.072 Y147.576 E63.37529
M204 S2000
G1 F2400 E62.57529
G1 F300 Z0.4
G0 F6000 X152.674 Y87.62 Z0.4
M204 S500
G1 F300 Z0.2
G1 F2400 E63.37529
G1 F900 X152.872 Y87.818 E63.38507
M204 S2000
G0 F6000 X152.872 Y88.384
M204 S500
G1 F900 X152.109 Y87.62 E63.42278
M204 S2000
G0 F6000 X151.543 Y87.62
M204 S500
G1 F900 X152.872 Y88.95 E63.48844
M204 S2000
G0 F6000 X152.872 Y89.515
M204 S500
G1 F900 X150.977 Y87.62 E63.58203
M204 S2000
G0 F6000 X150.412 Y87.62
M204 S500
G1 F900 X152.872 Y90.081 E63.70356
M204 S2000
G0 F6000 X152.872 Y90.647
M204 S500
G1 F900 X149.846 Y87.62 E63.85303
M204 S2000
G0 F6000 X149.28 Y87.62
M204 S500
G1 F900 X152.872 Y91.213 E64.03046
M204 S2000
G0 F6000 X152.872 Y91.778
M204 S500
G1 F900 X148.714 Y87.62 E64.23582
M204 S2000
G0 F6000 X148.149 Y87.62
M204 S500
G1 F900 X152.872 Y92.344 E64.46911
M204 S2000
G0 F6000 X152.872 Y92.91
M204 S500
G1 F900 X147.583 Y87.62 E64.73035
M204 S2000
G0 F6000 X147.017 Y87.62
M204 S500
G1 F900 X152.872 Y93.475 E65.01952
M204 S2000
G0 F6000 X152.872 Y94.041
M204 S500
G1 F900 X146.452 Y87.62 E65.33662
M204 S2000
G0 F6000 X145.886 Y87.62
M204 S500
G1 F900 X152.872 Y94.607 E65.68167
M204 S2000
G0 F6000 X152.872 Y95.172
M204 S500
G1 F900 X145.32 Y87.62 E66.05466
M204 S2000
G0 F6000 X144.755 Y87.62
M204 S500
G1 F900 X152.872 Y95.738 E66.45557
M204 S2000
G0 F6000 X152.872 Y96.304
M204 S500
G1 F900 X144.189 Y87.62 E66.88444
M204 S2000
G0 F6000 X143.623 Y87.62
M204 S500
G1 F900 X152.872 Y96.869 E67.34124
M204 S2000
G0 F6000 X152.872 Y97.435
M204 S500
G1 F900 X143.058 Y87.62 E67.82596
M204 S2000
G0 F6000 X142.492 Y87.62
M204 S500
G1 F900 X152.872 Y98.001 E68.33864
M204 S2000
G0 F6000 X152.872 Y98.566
M204 S500
G1 F900 X141.926 Y87.62 E68.87925
M204 S2000
G0 F6000 X141.361 Y87.62
M204 S500
G1 F900 X152.872 Y99.132 E69.44779
M204 S2000
G0 F6000 X152.872 Y99.698
M204 S500
G1 F900 X140.795 Y87.62 E70.04428
M204 S2000
G0 F6000 X140.229 Y87.62
M204 S500
G1 F900 X152.872 Y100.263 E70.66871
M204 S2000
G0 F6000 X152.872 Y100.829
M204 S500
G1 F900 X139.663 Y87.62 E71.32108
M204 S2000
G0 F6000 X139.098 Y87.62
M204 S500
G1 F900 X152.872 Y101.395 E72.00139
M204 S2000
G0 F6000 X152.872 Y101.961
M204 S500
G1 F900 X138.532 Y87.62 E72.70965
M204 S2000
G0 F6000 X137.966 Y87.62
M204 S500
G1 F900 X152.872 Y102.526 E73.44584
M204 S2000
G0 F6000 X152.872 Y103.092
M204 S500
G1 F900 X137.401 Y87.62 E74.20996
M204 S2000
G0 F6000 X136.835 Y87.62
M204 S500
G1 F900 X152.872 Y103.658 E75.00203
M204 S2000
G0 F6000 X152.872 Y104.223
M204 S500
G1 F900 X136.269 Y87.62 E75.82203
M204 S2000
G0 F6000 X135.704 Y87.62
M204 S500
G1 F900 X152.872 Y104.789 E76.66996
M204 S2000
G0 F6000 X152.872 Y105.355
M204 S500
G1 F900 X135.138 Y87.62 E77.54585
M204 S2000
G0 F6000 X134.572 Y87.62
M204 S500
G1 F900 X152.872 Y105.92 E78.44966
M204 S2000
G0 F6000 X152.872 Y106.486
M204 S500
G1 F900 X134.007 Y87.62 E79.38141
M204 S2000
G0 F6000 X133.441 Y87.62
M204 S500
G1 F900 X152.872 Y107.052 E80.3411
M204 S2000
G0 F6000 X152.872 Y107.617
M204 S500
G1 F900 X132.875 Y87.62 E81.32873
M204 S2000
G0 F6000 X132.31 Y87.62
M204 S500
G1 F900 X152.872 Y108.183 E82.34429
M204 S2000
G0 F6000 X152.872 Y108.749
M204 S500
G1 F900 X131.744 Y87.62 E83.3878
M204 S2000
G0 F6000 X131.178 Y87.62
M204 S500
G1 F900 X152.872 Y109.314 E84.45924
M204 S2000
G0 F6000 X152.872 Y109.88
M204 S500
G1 F900 X130.613 Y87.62 E85.55861
M204 S2000
G0 F6000 X130.047 Y87.62
M204 S500
G1 F900 X152.872 Y110.446 E86.68593
M204 S2000
G0 F6000 X152.872 Y111.012
M204 S500
G1 F900 X129.481 Y87.62 E87.84121
M204 S2000
G0 F6000 X128.915 Y87.62
M204 S500
G1 F900 X152.872 Y111.577 E89.02442
M204 S2000
G0 F6000 X152.872 Y112.143
M204 S500
G1 F900 X128.35 Y87.62 E90.23555
M204 S2000
G0 F6000 X127.784 Y87.62
M204 S500
G1 F900 X152.872 Y112.709 E91.47464
M204 S2000
G0 F6000 X152.872 Y113.274
M204 S500
G1 F900 X127.218 Y87.62 E92.74166
M204 S2000
G0 F6000 X126.653 Y87.62
M204 S500
G1 F900 X152.872 Y113.84 E94.03661
M204 S2000
G0 F6000 X152.872 Y114.406
M204 S500
G1 F900 X126.087 Y87.62 E95.35952
M204 S2000
G0 F6000 X125.521 Y87.62
M204 S500
G1 F900 X152.872 Y114.971 E96.71035
M204 S2000
G0 F6000 X152.872 Y115.537
M204 S500
G1 F900 X124.956 Y87.62 E98.08911
M204 S2000
G0 F6000 X124.39 Y87.62
M204 S500
G1 F900 X152.872 Y116.103 E99.49583
M204 S2000
G0 F6000 X152.872 Y116.668
M204 S500
G1 F900 X123.824 Y87.62 E100.93047
M204 S2000
G0 F6000 X123.259 Y87.62
M204 S500
G1 F900 X152.872 Y117.234 E102.39305
M204 S2000
G0 F6000 X152.872 Y117.8
M204 S500
G1 F900 X122.693 Y87.62 E103.88358
M204 S2000
G0 F6000 X122.127 Y87.62
M204 S500
G1 F900 X152.872 Y118.365 E105.40203
M204 S2000
G0 F6000 X152.872 Y118.931
M204 S500
G1 F900 X121.562 Y87.62 E106.94842
M204 S2000
G0 F6000 X120.996 Y87.62
M204 S500
G1 F900 X152.872 Y119.497 E108.52276
M204 S2000
G0 F6000 X152.872 Y120.062
M204 S500
G1 F900 X120.43 Y87.62 E110.12503
M204 S2000
G0 F6000 X119.864 Y87.62
M204 S500
G1 F900 X152.872 Y120.628 E111.75526
M204 S2000
G0 F6000 X152.872 Y121.194
M204 S500
G1 F900 X119.299 Y87.62 E113.41341
M204 S2000
G0 F6000 X118.733 Y87.62
M204 S500
G1 F900 X152.872 Y121.76 E115.09952
M204 S2000
G0 F6000 X152.872 Y122.325
M204 S500
G1 F900 X118.167 Y87.62 E116.81356
M204 S2000
G0 F6000 X117.602 Y87.62
M204 S500
G1 F900 X152.872 Y122.891 E118.55553
M204 S2000
G0 F6000 X152.872 Y123.457
M204 S500
G1 F900 X117.036 Y87.62 E120.32545
M204 S2000
G0 F6000 X116.47 Y87.62
M204 S500
G1 F900 X152.872 Y124.022 E122.1233
